public/logo-light.svg

<?xml version="1.0" encoding="UTF-8" standalone="no"?>
<!-- Created with Inkscape (http://www.inkscape.org/) -->

<svg
   width="128"
   height="128"
   viewBox="0 0 33.866665 33.866667"
   version="1.1"
   id="svg1"
   xml:space="preserve"
   inkscape:version="1.3.2 (091e20e, 2023-11-25, custom)"
   sodipodi:docname="logo-light.svg"
   xmlns:inkscape="http://www.inkscape.org/namespaces/inkscape"
   xmlns:sodipodi="http://sodipodi.sourceforge.net/DTD/sodipodi-0.dtd"
   xmlns:xlink="http://www.w3.org/1999/xlink"
   xmlns="http://www.w3.org/2000/svg"
   xmlns:svg="http://www.w3.org/2000/svg"><sodipodi:namedview
     id="namedview1"
     pagecolor="#424242"
     bordercolor="#000000"
     borderopacity="0.25"
     inkscape:showpageshadow="2"
     inkscape:pageopacity="0.0"
     inkscape:pagecheckerboard="0"
     inkscape:deskcolor="#1e1e1e"
     inkscape:document-units="mm"
     inkscape:zoom="1.0242632"
     inkscape:cx="101.04824"
     inkscape:cy="126.43234"
     inkscape:window-width="1920"
     inkscape:window-height="1009"
     inkscape:window-x="-8"
     inkscape:window-y="-8"
     inkscape:window-maximized="1"
     inkscape:current-layer="g1" /><defs
     id="defs1"><linearGradient
       id="linearGradient10"
       inkscape:collect="always"><stop
         style="stop-color:#000000;stop-opacity:1;"
         offset="0"
         id="stop10" /><stop
         style="stop-color:#ffffff;stop-opacity:1;"
         offset="1"
         id="stop11" /></linearGradient><linearGradient
       id="linearGradient6"
       inkscape:collect="always"><stop
         style="stop-color:#ffffff;stop-opacity:1;"
         offset="0"
         id="stop6" /><stop
         style="stop-color:#000000;stop-opacity:1;"
         offset="1"
         id="stop7" /></linearGradient><linearGradient
       id="linearGradient4"
       inkscape:collect="always"><stop
         style="stop-color:#000000;stop-opacity:1;"
         offset="0"
         id="stop5" /><stop
         style="stop-color:#ffffff;stop-opacity:1;"
         offset="1"
         id="stop4" /></linearGradient><linearGradient
       inkscape:collect="always"
       xlink:href="#linearGradient4"
       id="linearGradient5"
       x1="27.34341"
       y1="-16.906458"
       x2="33.736401"
       y2="-33.619556"
       gradientUnits="userSpaceOnUse"
       gradientTransform="matrix(1.2774803,0,0,1,-9.3884839,0)" /><linearGradient
       inkscape:collect="always"
       xlink:href="#linearGradient4"
       id="linearGradient2"
       gradientUnits="userSpaceOnUse"
       x1="27.34341"
       y1="-16.906458"
       x2="33.736401"
       y2="-33.619556" /><linearGradient
       inkscape:collect="always"
       xlink:href="#linearGradient6"
       id="linearGradient3"
       gradientUnits="userSpaceOnUse"
       x1="-0.038937729"
       y1="-0.24710901"
       x2="-6.5756459"
       y2="-16.960209" /><linearGradient
       inkscape:collect="always"
       xlink:href="#linearGradient10"
       id="linearGradient11"
       x1="0.17457525"
       y1="16.849592"
       x2="13.117664"
       y2="16.914171"
       gradientUnits="userSpaceOnUse" /></defs><g
     inkscape:label="Calque 1"
     inkscape:groupmode="layer"
     id="layer1"><g
       id="g1"><rect
         style="font-variation-settings:normal;opacity:1;vector-effect:none;fill:url(#linearGradient5);fill-opacity:1;stroke-width:4.69043;stroke-linecap:round;stroke-linejoin:round;stroke-miterlimit:4;stroke-dasharray:none;stroke-dashoffset:0;stroke-opacity:1;-inkscape-stroke:none;paint-order:stroke fill markers"
         id="rect3"
         width="8.4499998"
         height="16.933332"
         x="25.425514"
         y="-33.866665"
         transform="rotate(90)" /><path
         id="path3"
         style="font-variation-settings:normal;opacity:1;fill:url(#linearGradient11);fill-opacity:1;stroke:none;stroke-width:3.84;stroke-linecap:round;stroke-linejoin:round;stroke-miterlimit:4;stroke-dasharray:none;stroke-dashoffset:0;stroke-opacity:1;paint-order:stroke fill markers;stop-color:#000000;stop-opacity:1"
         d="M 16.978752,0.04541749 A 16.933333,16.933335 0 0 0 0.04541755,16.978751 16.933333,16.933335 0 0 0 16.978752,33.912084 16.933333,16.933335 0 0 0 33.912084,16.978751 16.933333,16.933335 0 0 0 16.978752,0.04541749 Z m 0,8.46666541 a 8.4666665,8.4666667 0 0 1 8.466665,8.4666681 8.4666665,8.4666667 0 0 1 -8.466665,8.466665 8.4666665,8.4666667 0 0 1 -8.4666662,-8.466665 8.4666665,8.4666667 0 0 1 8.4666662,-8.4666681 z" /><path
         id="circle1"
         style="font-variation-settings:normal;opacity:1;fill:#ffffff;fill-opacity:1;stroke:none;stroke-width:3.84;stroke-linecap:round;stroke-linejoin:round;stroke-miterlimit:4;stroke-dasharray:none;stroke-dashoffset:0;stroke-opacity:1;paint-order:stroke fill markers;stop-color:#000000;stop-opacity:1"
         d="m 0.04857585,0 v 16.933333 c -0.0010539,0.01516 -0.0020875,0.03032 -0.0031006,0.04548 1.1e-6,9.352022 7.58131265,16.933333 16.93333375,16.933333 9.352021,0 16.933332,-7.581311 16.933333,-16.933333 -0.001,-0.01516 -0.002,-0.03032 -0.0031,-0.04548 h -8.465116 c 5.57e-4,0.01516 0.0011,0.03032 0.0015,0.04548 0,4.67601 -3.790656,8.466666 -8.466666,8.466666 -4.676011,0 -8.4666667,-3.790655 -8.4666671,-8.466666 0.00151,-0.01516 0.00306,-0.03032 0.00465,-0.04548 h -0.0031 l 0,-10.1705563 C 8.5136429,0.33833854 0.04857585,0 0.04857585,0 Z"
         sodipodi:nodetypes="cccsccccscccsc" /></g><g
       id="g2"
       transform="translate(-48.221402)"
       style="display:none"><rect
         style="font-variation-settings:normal;opacity:1;vector-effect:none;fill:url(#linearGradient2);fill-opacity:1;stroke-width:4.14988;stroke-linecap:round;stroke-linejoin:round;stroke-miterlimit:4;stroke-dasharray:none;stroke-dashoffset:0;stroke-opacity:1;-inkscape-stroke:none;paint-order:stroke fill markers"
         id="rect1"
         width="6.6145835"
         height="16.933332"
         x="27.252083"
         y="-33.866665"
         transform="rotate(90)" /><rect
         style="font-variation-settings:normal;vector-effect:none;fill:url(#linearGradient3);fill-opacity:1;stroke-width:4.14988;stroke-linecap:round;stroke-linejoin:round;stroke-miterlimit:4;stroke-dasharray:none;stroke-dashoffset:0;stroke-opacity:1;-inkscape-stroke:none;paint-order:stroke fill markers"
         id="rect2"
         width="6.6145835"
         height="16.933332"
         x="-6.6145835"
         y="-16.933332"
         transform="scale(-1)" /><path
         id="path2"
         style="font-variation-settings:normal;opacity:1;fill:#ffffff;fill-opacity:1;stroke:none;stroke-width:3.84;stroke-linecap:round;stroke-linejoin:round;stroke-miterlimit:4;stroke-dasharray:none;stroke-dashoffset:0;stroke-opacity:1;paint-order:stroke fill markers;stop-color:#000000;stop-opacity:1"
         d="M 16.978752,0.04541749 A 16.933333,16.933335 0 0 0 0.04541755,16.978751 16.933333,16.933335 0 0 0 16.978752,33.912084 16.933333,16.933335 0 0 0 33.912084,16.978751 16.933333,16.933335 0 0 0 16.978752,0.04541749 Z m 0,8.46666541 a 8.4666665,8.4666667 0 0 1 8.466665,8.4666681 8.4666665,8.4666667 0 0 1 -8.466665,8.466665 8.4666665,8.4666667 0 0 1 -8.4666662,-8.466665 8.4666665,8.4666667 0 0 1 8.4666662,-8.4666681 z" /></g></g></svg>

<?xml version="1.0" encoding="UTF-8" standalone="no"?>
<!-- Created with Inkscape (http://www.inkscape.org/) -->

<svg
   width="128"
   height="128"
   viewBox="0 0 33.866665 33.866667"
   version="1.1"
   id="svg1"
   xml:space="preserve"
   inkscape:version="1.3.2 (091e20e, 2023-11-25, custom)"
   sodipodi:docname="logo-light.svg"
   xmlns:inkscape="http://www.inkscape.org/namespaces/inkscape"
   xmlns:sodipodi="http://sodipodi.sourceforge.net/DTD/sodipodi-0.dtd"
   xmlns:xlink="http://www.w3.org/1999/xlink"
   xmlns="http://www.w3.org/2000/svg"
   xmlns:svg="http://www.w3.org/2000/svg"><sodipodi:namedview
     id="namedview1"
     pagecolor="#424242"
     bordercolor="#000000"
     borderopacity="0.25"
     inkscape:showpageshadow="2"
     inkscape:pageopacity="0.0"
     inkscape:pagecheckerboard="0"
     inkscape:deskcolor="#1e1e1e"
     inkscape:document-units="mm"
     inkscape:zoom="2.8970539"
     inkscape:cx="56.781822"
     inkscape:cy="76.802161"
     inkscape:window-width="1920"
     inkscape:window-height="1009"
     inkscape:window-x="-8"
     inkscape:window-y="-8"
     inkscape:window-maximized="1"
     inkscape:current-layer="g1" /><defs
     id="defs1"><linearGradient
       id="linearGradient10"
       inkscape:collect="always"><stop
         style="stop-color:#000000;stop-opacity:1;"
         offset="0"
         id="stop10" /><stop
         style="stop-color:#ffffff;stop-opacity:1;"
         offset="1"
         id="stop11" /></linearGradient><linearGradient
       id="linearGradient6"
       inkscape:collect="always"><stop
         style="stop-color:#ffffff;stop-opacity:1;"
         offset="0"
         id="stop6" /><stop
         style="stop-color:#000000;stop-opacity:1;"
         offset="1"
         id="stop7" /></linearGradient><linearGradient
       id="linearGradient4"
       inkscape:collect="always"><stop
         style="stop-color:#000000;stop-opacity:1;"
         offset="0"
         id="stop5" /><stop
         style="stop-color:#ffffff;stop-opacity:1;"
         offset="1"
         id="stop4" /></linearGradient><linearGradient
       inkscape:collect="always"
       xlink:href="#linearGradient4"
       id="linearGradient5"
       x1="27.34341"
       y1="-16.906458"
       x2="33.736401"
       y2="-33.619556"
       gradientUnits="userSpaceOnUse"
       gradientTransform="matrix(1.2774803,0,0,1,-9.3884839,0)" /><linearGradient
       inkscape:collect="always"
       xlink:href="#linearGradient4"
       id="linearGradient2"
       gradientUnits="userSpaceOnUse"
       x1="27.34341"
       y1="-16.906458"
       x2="33.736401"
       y2="-33.619556" /><linearGradient
       inkscape:collect="always"
       xlink:href="#linearGradient6"
       id="linearGradient3"
       gradientUnits="userSpaceOnUse"
       x1="-0.038937729"
       y1="-0.24710901"
       x2="-6.5756459"
       y2="-16.960209" /><linearGradient
       inkscape:collect="always"
       xlink:href="#linearGradient10"
       id="linearGradient11"
       x1="0.17457525"
       y1="16.849592"
       x2="13.117664"
       y2="16.914171"
       gradientUnits="userSpaceOnUse" /></defs><g
     inkscape:label="Calque 1"
     inkscape:groupmode="layer"
     id="layer1"><g
       id="g1"><rect
         style="font-variation-settings:normal;opacity:1;vector-effect:none;fill:url(#linearGradient5);fill-opacity:1;stroke-width:4.69043;stroke-linecap:round;stroke-linejoin:round;stroke-miterlimit:4;stroke-dasharray:none;stroke-dashoffset:0;stroke-opacity:1;-inkscape-stroke:none;paint-order:stroke fill markers"
         id="rect3"
         width="8.4499998"
         height="16.933332"
         x="25.425514"
         y="-33.866665"
         transform="rotate(90)" /><path
         id="path3"
         style="font-variation-settings:normal;opacity:1;fill:url(#linearGradient11);fill-opacity:1;stroke:none;stroke-width:3.84;stroke-linecap:round;stroke-linejoin:round;stroke-miterlimit:4;stroke-dasharray:none;stroke-dashoffset:0;stroke-opacity:1;paint-order:stroke fill markers;stop-color:#000000;stop-opacity:1"
         d="M 16.978752,0.04541749 A 16.933333,16.933335 0 0 0 0.04541755,16.978751 16.933333,16.933335 0 0 0 16.978752,33.912084 16.933333,16.933335 0 0 0 33.912084,16.978751 16.933333,16.933335 0 0 0 16.978752,0.04541749 Z m 0,8.46666541 a 8.4666665,8.4666667 0 0 1 8.466665,8.4666681 8.4666665,8.4666667 0 0 1 -8.466665,8.466665 8.4666665,8.4666667 0 0 1 -8.4666662,-8.466665 8.4666665,8.4666667 0 0 1 8.4666662,-8.4666681 z" /><path
         id="circle1"
         style="font-variation-settings:normal;opacity:1;fill:#ffffff;fill-opacity:1;stroke:none;stroke-width:3.84;stroke-linecap:round;stroke-linejoin:round;stroke-miterlimit:4;stroke-dasharray:none;stroke-dashoffset:0;stroke-opacity:1;paint-order:stroke fill markers;stop-color:#000000;stop-opacity:1"
         d="M 0.048575846 0 L 0.048575846 16.933333 A 16.933333 16.933335 0 0 0 0.04547526 16.978809 A 16.933333 16.933335 0 0 0 16.978809 33.912142 A 16.933333 16.933335 0 0 0 33.912142 16.978809 A 16.933333 16.933335 0 0 0 33.909041 16.933333 L 25.443925 16.933333 A 8.4666665 8.4666667 0 0 1 25.445475 16.978809 A 8.4666665 8.4666667 0 0 1 16.978809 25.445475 A 8.4666665 8.4666667 0 0 1 8.5121419 16.978809 A 8.4666665 8.4666667 0 0 1 8.5167928 16.933333 L 8.5136922 16.933333 L 8.5136922 0 L 0.048575846 0 z " /></g><g
       id="g2"
       transform="translate(-48.221402)"
       style="display:none"><rect
         style="font-variation-settings:normal;opacity:1;vector-effect:none;fill:url(#linearGradient2);fill-opacity:1;stroke-width:4.14988;stroke-linecap:round;stroke-linejoin:round;stroke-miterlimit:4;stroke-dasharray:none;stroke-dashoffset:0;stroke-opacity:1;-inkscape-stroke:none;paint-order:stroke fill markers"
         id="rect1"
         width="6.6145835"
         height="16.933332"
         x="27.252083"
         y="-33.866665"
         transform="rotate(90)" /><rect
         style="font-variation-settings:normal;vector-effect:none;fill:url(#linearGradient3);fill-opacity:1;stroke-width:4.14988;stroke-linecap:round;stroke-linejoin:round;stroke-miterlimit:4;stroke-dasharray:none;stroke-dashoffset:0;stroke-opacity:1;-inkscape-stroke:none;paint-order:stroke fill markers"
         id="rect2"
         width="6.6145835"
         height="16.933332"
         x="-6.6145835"
         y="-16.933332"
         transform="scale(-1)" /><path
         id="path2"
         style="font-variation-settings:normal;opacity:1;fill:#ffffff;fill-opacity:1;stroke:none;stroke-width:3.84;stroke-linecap:round;stroke-linejoin:round;stroke-miterlimit:4;stroke-dasharray:none;stroke-dashoffset:0;stroke-opacity:1;paint-order:stroke fill markers;stop-color:#000000;stop-opacity:1"
         d="M 16.978752,0.04541749 A 16.933333,16.933335 0 0 0 0.04541755,16.978751 16.933333,16.933335 0 0 0 16.978752,33.912084 16.933333,16.933335 0 0 0 33.912084,16.978751 16.933333,16.933335 0 0 0 16.978752,0.04541749 Z m 0,8.46666541 a 8.4666665,8.4666667 0 0 1 8.466665,8.4666681 8.4666665,8.4666667 0 0 1 -8.466665,8.466665 8.4666665,8.4666667 0 0 1 -8.4666662,-8.466665 8.4666665,8.4666667 0 0 1 8.4666662,-8.4666681 z" /></g></g></svg>
